X:261
T:Highlander's Jig
T:Cold Wind from Ben Wyvis
B:Kerr's Merry Melodies Bk3, p32
Z:Nigel Gatherer
M:6/8
L:1/8
K:A
d|c2 e ece|fdf ecA|c2 e ef=g|B=GB B2 d|c2 e ece|fdf ecA|
cec dBG|ABA A2::g|a2 f g2 e|fdf ecA|a2 f =g2 d|
B=GB B2 ^g|a2 f g2 e|fdf ecA|cec dBG|ABA A2:|
<end>
<start>
